X:1
T:Title
L:1/8
Q:1/4=100
M:4/4
K:Ab
V:1 treble nm="Grand Piano"
V:1
 C D2 C C2 C2 | C F2 E E4 | E G2 F F4 | E F2 E ED C2 | C D2 C C3 C- | CF E2 E4 | E G2 F F3 E- | %7
w: ????~???? * * * *|||||||
 E F2 E ED C2 | A c2 B cBAB- | B A2 B c2 cc | B c2 B B A3 | A c2 B cBAB- | B A2 B c2 cc | %13
w: ||||||
 B c2 B B A3 | G2 A2 B2 z2 | d d2 c cB B2 | G2 A2 B2 z2 | c c2 B BA A2 | A2 B2 c2 z2 | %19
w: ||||||
 d d2 c cB B2 | G2 A2 B2 z2 | c c2 B BA A2 | =E2 F2 G3 A- | A A2 G GF F2 | =D2 =E2 F2 z2 | %25
w: ||||||
 D F2 =E ED C2 | =D2 =E2 F2 z2 |[M:9/8] D F2 =EED C3 |] %28
w: |||

